(Exported by FreeCAD)
(Post Processor: grbl_post)
(Output Time:2026-03-11 09:53:23.041502)
(Begin preamble)
G17 G90
G21
(Begin operation: Fixture)
(Path: Fixture)
G54
(Finish operation: Fixture)
(Begin operation: TC: 1mm Drill)
(Path: TC: 1mm Drill)
(TC: 1mm Drill)
(Begin toolchange)
( M6 T2 )
M3 S10000
(Finish operation: TC: 1mm Drill)
(Begin operation: Drilling001)
(Path: Drilling001)
(Drilling001)
(Begin Drilling)
G90
G0 Z5.000
( G98 )
G0 X3.755 Y1.740
G0 Z3.000
(G81 X3.755 Y1.740 Z-1.620 F100.000 R3.000)
G0 X3.755 Y1.740
G1 Z-1.620 F100.00
G0 Z3.000
G0 X3.755 Y4.280
(G81 X3.755 Y4.280 Z-1.620 F100.000 R3.000)
G0 X3.755 Y4.280
G1 Z-1.620 F100.00
G0 Z3.000
G0 X3.755 Y6.820
(G81 X3.755 Y6.820 Z-1.620 F100.000 R3.000)
G0 X3.755 Y6.820
G1 Z-1.620 F100.00
G0 Z3.000
G0 X3.755 Y9.360
(G81 X3.755 Y9.360 Z-1.620 F100.000 R3.000)
G0 X3.755 Y9.360
G1 Z-1.620 F100.00
G0 Z3.000
G0 X3.755 Y11.900
(G81 X3.755 Y11.900 Z-1.620 F100.000 R3.000)
G0 X3.755 Y11.900
G1 Z-1.620 F100.00
G0 Z3.000
G0 X3.755 Y14.440
(G81 X3.755 Y14.440 Z-1.620 F100.000 R3.000)
G0 X3.755 Y14.440
G1 Z-1.620 F100.00
G0 Z3.000
G0 X3.755 Y16.980
(G81 X3.755 Y16.980 Z-1.620 F100.000 R3.000)
G0 X3.755 Y16.980
G1 Z-1.620 F100.00
G0 Z3.000
G0 X3.755 Y19.520
(G81 X3.755 Y19.520 Z-1.620 F100.000 R3.000)
G0 X3.755 Y19.520
G1 Z-1.620 F100.00
G0 Z3.000
G0 X3.755 Y22.060
(G81 X3.755 Y22.060 Z-1.620 F100.000 R3.000)
G0 X3.755 Y22.060
G1 Z-1.620 F100.00
G0 Z3.000
G0 X3.755 Y24.600
(G81 X3.755 Y24.600 Z-1.620 F100.000 R3.000)
G0 X3.755 Y24.600
G1 Z-1.620 F100.00
G0 Z3.000
G0 X3.755 Y27.140
(G81 X3.755 Y27.140 Z-1.620 F100.000 R3.000)
G0 X3.755 Y27.140
G1 Z-1.620 F100.00
G0 Z3.000
G0 X3.755 Y29.680
(G81 X3.755 Y29.680 Z-1.620 F100.000 R3.000)
G0 X3.755 Y29.680
G1 Z-1.620 F100.00
G0 Z3.000
G0 X3.755 Y32.220
(G81 X3.755 Y32.220 Z-1.620 F100.000 R3.000)
G0 X3.755 Y32.220
G1 Z-1.620 F100.00
G0 Z3.000
G0 X3.755 Y34.760
(G81 X3.755 Y34.760 Z-1.620 F100.000 R3.000)
G0 X3.755 Y34.760
G1 Z-1.620 F100.00
G0 Z3.000
G0 X3.755 Y37.300
(G81 X3.755 Y37.300 Z-1.620 F100.000 R3.000)
G0 X3.755 Y37.300
G1 Z-1.620 F100.00
G0 Z3.000
G0 X3.755 Y39.840
(G81 X3.755 Y39.840 Z-1.620 F100.000 R3.000)
G0 X3.755 Y39.840
G1 Z-1.620 F100.00
G0 Z3.000
G0 X3.755 Y42.380
(G81 X3.755 Y42.380 Z-1.620 F100.000 R3.000)
G0 X3.755 Y42.380
G1 Z-1.620 F100.00
G0 Z3.000
G0 X3.755 Y44.920
(G81 X3.755 Y44.920 Z-1.620 F100.000 R3.000)
G0 X3.755 Y44.920
G1 Z-1.620 F100.00
G0 Z3.000
G0 X3.755 Y47.460
(G81 X3.755 Y47.460 Z-1.620 F100.000 R3.000)
G0 X3.755 Y47.460
G1 Z-1.620 F100.00
G0 Z3.000
G0 X3.755 Y50.000
(G81 X3.755 Y50.000 Z-1.620 F100.000 R3.000)
G0 X3.755 Y50.000
G1 Z-1.620 F100.00
G0 Z3.000
G0 X21.535 Y50.000
(G81 X21.535 Y50.000 Z-1.620 F100.000 R3.000)
G0 X21.535 Y50.000
G1 Z-1.620 F100.00
G0 Z3.000
G0 X21.535 Y47.460
(G81 X21.535 Y47.460 Z-1.620 F100.000 R3.000)
G0 X21.535 Y47.460
G1 Z-1.620 F100.00
G0 Z3.000
G0 X21.535 Y44.920
(G81 X21.535 Y44.920 Z-1.620 F100.000 R3.000)
G0 X21.535 Y44.920
G1 Z-1.620 F100.00
G0 Z3.000
G0 X21.535 Y42.380
(G81 X21.535 Y42.380 Z-1.620 F100.000 R3.000)
G0 X21.535 Y42.380
G1 Z-1.620 F100.00
G0 Z3.000
G0 X21.535 Y39.840
(G81 X21.535 Y39.840 Z-1.620 F100.000 R3.000)
G0 X21.535 Y39.840
G1 Z-1.620 F100.00
G0 Z3.000
G0 X21.535 Y37.300
(G81 X21.535 Y37.300 Z-1.620 F100.000 R3.000)
G0 X21.535 Y37.300
G1 Z-1.620 F100.00
G0 Z3.000
G0 X21.535 Y34.760
(G81 X21.535 Y34.760 Z-1.620 F100.000 R3.000)
G0 X21.535 Y34.760
G1 Z-1.620 F100.00
G0 Z3.000
G0 X21.535 Y32.220
(G81 X21.535 Y32.220 Z-1.620 F100.000 R3.000)
G0 X21.535 Y32.220
G1 Z-1.620 F100.00
G0 Z3.000
G0 X21.535 Y29.680
(G81 X21.535 Y29.680 Z-1.620 F100.000 R3.000)
G0 X21.535 Y29.680
G1 Z-1.620 F100.00
G0 Z3.000
G0 X21.535 Y27.140
(G81 X21.535 Y27.140 Z-1.620 F100.000 R3.000)
G0 X21.535 Y27.140
G1 Z-1.620 F100.00
G0 Z3.000
G0 X21.535 Y24.600
(G81 X21.535 Y24.600 Z-1.620 F100.000 R3.000)
G0 X21.535 Y24.600
G1 Z-1.620 F100.00
G0 Z3.000
G0 X21.535 Y22.060
(G81 X21.535 Y22.060 Z-1.620 F100.000 R3.000)
G0 X21.535 Y22.060
G1 Z-1.620 F100.00
G0 Z3.000
G0 X21.535 Y19.520
(G81 X21.535 Y19.520 Z-1.620 F100.000 R3.000)
G0 X21.535 Y19.520
G1 Z-1.620 F100.00
G0 Z3.000
G0 X21.535 Y16.980
(G81 X21.535 Y16.980 Z-1.620 F100.000 R3.000)
G0 X21.535 Y16.980
G1 Z-1.620 F100.00
G0 Z3.000
G0 X21.535 Y14.440
(G81 X21.535 Y14.440 Z-1.620 F100.000 R3.000)
G0 X21.535 Y14.440
G1 Z-1.620 F100.00
G0 Z3.000
G0 X21.535 Y11.900
(G81 X21.535 Y11.900 Z-1.620 F100.000 R3.000)
G0 X21.535 Y11.900
G1 Z-1.620 F100.00
G0 Z3.000
G0 X21.535 Y9.360
(G81 X21.535 Y9.360 Z-1.620 F100.000 R3.000)
G0 X21.535 Y9.360
G1 Z-1.620 F100.00
G0 Z3.000
G0 X21.535 Y6.820
(G81 X21.535 Y6.820 Z-1.620 F100.000 R3.000)
G0 X21.535 Y6.820
G1 Z-1.620 F100.00
G0 Z3.000
G0 X21.535 Y4.280
(G81 X21.535 Y4.280 Z-1.620 F100.000 R3.000)
G0 X21.535 Y4.280
G1 Z-1.620 F100.00
G0 Z3.000
G0 X21.535 Y1.740
(G81 X21.535 Y1.740 Z-1.620 F100.000 R3.000)
G0 X21.535 Y1.740
G1 Z-1.620 F100.00
G0 Z3.000
( G80 )
G0 Z5.000
(Finish operation: Drilling001)
(Begin postamble)
M5
G17 G90
M2
